X:1
T:Sing Out Your Hallelujahs
T:George Edgar Oliver
T:Sing Out Your Hallelujahs
T:Public Domain
T:Public Domain
C:George Edgar Oliver
Z:Public Domain
%%score ( 1 2 ) ( 3 4 )
L:1/8
M:4/4
K:Ab
V:1 treble 
V:2 treble 
V:3 bass 
V:4 bass 
V:1
 E2 | [CA]2 [CA]2 [CG]2 [CG]2 | [CF]4 [CE]2 [CE]2 | (FG) [DA]2 (GA) [DB]2 | [CA]4 z2 E2 | %5
w: 1.~Sing|your hal- le- lu-|jahs, Ye ran-|somed * of the * Lord!|to God|
w: 2.~Sing|your hal- le- lu-|jahs! Sing of|the * vic- tory * won|tan’s de-|
w: 3.~Sing|your hal- le- lu-|jahs, And let|your * voic- es * rise|est ac-|
 [CEc]2 [CEc]2 [CGB]2 [CGB]2 | [CFA]4 [CF]2 [Ec]2 | (cB)(eG) [EB]2 [=DB]2 | E4 z2 [EB]2 | %9
w: Fa- ther, By my-|riad hosts a-|dored! * Sing * of His|glo- ry,|
w: forc- es By God’s|e- ter- nal|Son! * Sing * of the|cleans- ing!|
w: ma- tion Un- til|they reach the|skies! * Sing * till the|Heav- en|
 [Ee]2 [Ee]2 [EFc]2 [EFc]2 | [DFd]4 [FB]2 [FA]2 | (GF)(EF) (GA)([EB][^Fc]) | (dgfe dc) [GB]2 | %13
w: of His love and|might! Join with|the * choir * of * Heav- *|His * * * * * praise|
w: of the lost re-|stored! Sing prais-|es * with- * out * ceas- *|re- * * * * * deem-|
w: blend with songs of|earth In glo-|ry, * laud * and * hon- *|Re- * * * * * deem-|
 [_Ge]2 [Ge]2 [Gf]2 [Ge]2 | [Fd]4 [Ec]2 [FB]2 | (AG)(FA) (GF)(GE) | [CA]6 |] %17
w: right! * * *||||
w: Lord. * * *||||
w: worth. * * *||||
V:2
 E2 | x8 | x8 | D2 x D2 x3 | x6 E2 | x8 | x8 | E2 E2 x4 | E4 x4 | x8 | x8 | E2 E2 E2 x2 | %12
w: out|||Sing praise|our|||grace and|Sing|||en To sound|
w: out|||O’er Sa-|mon|||fount of|Sing|||ing To your|
w: out|||In loud-|cla-|||songs of|Shall|||or To our|
 [Gd]6 x2 | x8 | x8 | D2 D2 D2 D2 | x6 |] %17
w: a-|||||
w: ing|||||
w: er’s|||||
V:3
 E,2 | [A,,E,]2 [E,,E,]2 [A,,E,]2 [E,,E,]2 | (A,,2 E,,2) [A,,E,]2 [E,,E,]2 | %3
 [B,,E,]2 [E,,E,]2 [B,,E,]2 [E,,E,]2 | (A,,2 E,,2) A,,2 E,2 | %5
 [A,,A,]2 [A,,A,]2 [=E,,=E,]2 [E,,E,]2 | [F,,F,]4 [A,,A,]2 [=A,,^F,]2 | %7
 [B,,G,]2 (G,B,) [B,,A,]2 [B,,A,]2 | (E,2 B,,2) E,,2 [D,G,]2 | %9
 [C,=A,]2 [C,A,]2 [=A,,A,]2 [A,,A,]2 | [B,,A,]4 [D,B,]2 [=D,=B,]2 | %11
 (B,A,)(G,A,) (E,F,)([G,B,][=A,E]) | [B,E]6 [DE]2 | [CE]2 [A,C]2 [=A,C]2 [=A,,C]2 | %14
 [B,,B,]4 [C,=A,]2 [D,B,]2 | [E,B,]2 [E,B,]2 (B,A,)(B,G,) | (A,,2 E,,2 A,,2) |] %17
V:4
 E,2 | x8 | E,4 x4 | x8 | E,4 A,,2 E,2 | x8 | x8 | x2 B,,2 x4 | G,4 x4 | x8 | x8 | E,2 E,2 B,2 x2 | %12
 x8 | x8 | x8 | x4 E,2 E,2 | A,6 |] %17

